ES2T1/53/aimg/i4-dialogo1.svg

<svg clip-rule="evenodd" fill-rule="evenodd" stroke-miterlimit="10" viewBox="0 0 121 56" xmlns="http://www.w3.org/2000/svg"><g fill-rule="nonzero" transform="translate(-13 -58)"><path d="m115.108 65.413h-83.633c-5.957 0-10.83 4.873-10.83 10.83v.154c0 5.957 4.873 10.831 10.83 10.831h.939c3.168 6.943 7.403 13.398 12.53 19.053-1.881-6.214-3.773-12.618-3.728-19.053h73.892c5.957 0 10.83-4.874 10.83-10.831v-.154c0-5.957-4.873-10.83-10.83-10.83z" fill="#fff" stroke="#231f20" stroke-width="1.44"/><g fill="#231f20"><path d="m28.521 75.31h1.049v-1.251h-1.049zm-.009.722c-.01.356-.058.741-.732 1.386-.529.491-1.107 1.03-1.107 1.867 0 1.059.876 2.031 2.185 2.031 1.126 0 2.233-.741 2.32-2.108v-.212h-1.098c0 .077-.009.164-.019.241-.096.655-.558 1.04-1.155 1.04-.674 0-1.087-.491-1.087-1.098.009-.491.317-.808.808-1.299.722-.693.924-1.194.943-1.848z"/><path d="m39.975 78.486c-.606-.048-.963-.144-1.328-.394.279-.328.876-1.04.876-2.387 0-1.964-1.569-3.667-3.754-3.667s-3.725 1.732-3.725 3.715c0 1.877 1.463 3.677 3.754 3.677.731 0 1.472-.231 2.088-.626.308.231.722.51 1.55.577.183.02.356.029.539.039zm-4.197-5.447c1.425 0 2.618 1.087 2.618 2.666 0 .654-.221 1.241-.635 1.665-.751-.635-.962-.828-1.367-1.078-.567-.356-1.145-.501-1.78-.501-.597 0-1.03.145-1.319.241-.038-.164-.067-.375-.048-.693.154-1.367 1.213-2.3 2.522-2.3zm.01 5.39c-.635 0-1.781-.28-2.329-1.473.25-.106.558-.202 1.039-.202.587 0 1.175.173 1.714.568.105.086.654.529.856.75-.24.174-.722.357-1.27.357z"/><path d="m45.509 74.059h-1.001v2.926c0 .895-.452 1.521-1.434 1.53-1.03 0-1.395-.674-1.395-1.617v-2.839h-1.001v3.07c0 1.088.433 2.31 2.117 2.32.934.009 1.521-.424 1.771-.963v.809h.943z"/><path d="m51.948 76.994c.087-.875-.173-1.694-.789-2.319-.5-.491-1.184-.77-1.934-.77-1.589 0-2.763 1.28-2.763 2.781 0 1.386 1.059 2.763 2.772 2.763.53 0 1.049-.145 1.492-.443.443-.289.809-.722 1.059-1.299h-1.04c-.288.548-.808.885-1.511.885-.789 0-1.713-.539-1.761-1.598zm-4.456-.779c.048-.712.712-1.454 1.733-1.454.991-.019 1.684.761 1.732 1.454zm.539-3.379.298.616 2.339-1.174-.346-.731z"/><path d="m54.172 78.034h-1.059l-.606 1.992h.866z"/><path d="m62.863 74.059h-.962v.895c-.279-.491-.895-1.049-1.954-1.049-1.559 0-2.686 1.193-2.686 2.83 0 1.472 1.059 2.714 2.628 2.714 1.117 0 1.742-.607 1.973-1.04v2.792h1.001zm-4.601 2.637c.01-.905.626-1.858 1.829-1.858.51 0 .972.203 1.309.539.327.337.53.799.51 1.309 0 .511-.202.973-.529 1.3s-.78.529-1.29.529c-1.097 0-1.829-.866-1.829-1.809z"/><path d="m68.994 74.059h-1.001v2.926c0 .895-.452 1.521-1.434 1.53-1.03 0-1.395-.674-1.395-1.617v-2.839h-1.001v3.07c0 1.088.433 2.31 2.117 2.32.934.009 1.521-.424 1.771-.963v.809h.943z"/><path d="m75.424 76.994c.086-.875-.173-1.694-.789-2.319-.501-.491-1.184-.77-1.935-.77-1.588 0-2.762 1.28-2.762 2.781 0 1.386 1.058 2.763 2.772 2.763.529 0 1.049-.145 1.491-.443.443-.289.809-.722 1.059-1.299h-1.039c-.289.548-.809.885-1.511.885-.79 0-1.714-.539-1.762-1.598zm-4.457-.779c.049-.712.713-1.454 1.733-1.454.991-.019 1.684.761 1.732 1.454zm.539-3.379.299.616 2.339-1.174-.347-.731z"/><path d="m79.351 79.295h1.001v-4.457h.962v-.779h-.962v-.308c0-.915.625-.915.962-.924v-.789c-.741.009-1.963.086-1.963 1.665v.356h-.712v.779h.712z"/><path d="m86.868 74.059h-1.001v2.926c0 .895-.452 1.521-1.434 1.53-1.03 0-1.396-.674-1.396-1.617v-2.839h-1.001v3.07c0 1.088.433 2.31 2.118 2.32.933.009 1.52-.424 1.771-.963v.809h.943z"/><path d="m93.297 76.994c.087-.875-.173-1.694-.789-2.319-.5-.491-1.184-.77-1.934-.77-1.589 0-2.763 1.28-2.763 2.781 0 1.386 1.059 2.763 2.772 2.763.53 0 1.049-.145 1.492-.443.443-.289.809-.722 1.059-1.299h-1.04c-.288.548-.808.885-1.511.885-.789 0-1.713-.539-1.761-1.598zm-4.456-.779c.048-.712.712-1.454 1.733-1.454.991-.019 1.684.761 1.732 1.454z"/><path d="m102.239 76.994c.087-.875-.173-1.694-.789-2.319-.501-.491-1.184-.77-1.935-.77-1.588 0-2.762 1.28-2.762 2.781 0 1.386 1.059 2.763 2.772 2.763.529 0 1.049-.145 1.492-.443.442-.289.808-.722 1.058-1.299h-1.039c-.289.548-.809.885-1.511.885-.789 0-1.713-.539-1.762-1.598zm-4.456-.779c.048-.712.712-1.454 1.732-1.454.992-.019 1.685.761 1.733 1.454z"/><path d="m106.522 75.426c-.077-1.165-1.02-1.521-1.742-1.521-.953 0-1.761.597-1.761 1.588.009.789.587 1.136 1.318 1.357.934.308 1.329.481 1.338 1.001 0 .443-.375.78-.856.78-.376 0-.886-.212-.924-.847h-.992c.048 1.193 1.078 1.665 1.906 1.665 1.039 0 1.886-.693 1.867-1.713-.029-1.127-.905-1.358-1.703-1.579-.559-.154-.934-.346-.953-.76-.01-.347.26-.674.75-.674.511-.01.761.298.761.703z"/><path d="m107.408 76.677c0 1.405 1.03 2.762 2.791 2.762s2.791-1.357 2.791-2.762-1.03-2.772-2.791-2.772-2.791 1.367-2.791 2.762zm1.001 0c0-1.049.789-1.829 1.79-1.829s1.79.78 1.79 1.829-.789 1.829-1.79 1.829-1.79-.78-1.79-1.82z"/><path d="m116.455 77.331c.01-.356.058-.741.732-1.386.529-.5 1.107-1.03 1.107-1.867 0-1.068-.876-2.04-2.185-2.04-1.126 0-2.233.75-2.32 2.107 0 .068-.01.126 0 .212h1.097c0-.077.01-.154.02-.24.086-.645.558-1.03 1.155-1.03.673 0 1.087.481 1.087 1.087-.009.501-.317.818-.808 1.309-.722.693-.924 1.194-.944 1.848zm-.009.713h-1.05v1.251h1.05z"/></g></g></svg>

<?xml version="1.0" encoding="UTF-8" standalone="no"?>
<!DOCTYPE svg PUBLIC "-//W3C//DTD SVG 1.1//EN" "http://www.w3.org/Graphics/SVG/1.1/DTD/svg11.dtd">
<svg width="100%" height="100%" viewBox="0 0 121 56" version="1.1" xmlns="http://www.w3.org/2000/svg" xmlns:xlink="http://www.w3.org/1999/xlink" xml:space="preserve" xmlns:serif="http://www.serif.com/" style="fill-rule:evenodd;clip-rule:evenodd;stroke-miterlimit:10;">
    <g transform="matrix(1,0,0,1,-13,-58)">
        <g id="dialogo">
            <path d="M115.108,65.413L31.475,65.413C25.518,65.413 20.645,70.286 20.645,76.243L20.645,76.397C20.645,82.354 25.518,87.228 31.475,87.228L32.414,87.228C35.582,94.171 39.817,100.626 44.944,106.281C43.063,100.067 41.171,93.663 41.216,87.228L115.108,87.228C121.065,87.228 125.938,82.354 125.938,76.397L125.938,76.243C125.938,70.286 121.065,65.413 115.108,65.413Z" style="fill:white;fill-rule:nonzero;stroke:rgb(35,31,32);stroke-width:1.44px;"/>
            <g>
                <path d="M28.521,75.31L29.57,75.31L29.57,74.059L28.521,74.059L28.521,75.31ZM28.512,76.032C28.502,76.388 28.454,76.773 27.78,77.418C27.251,77.909 26.673,78.448 26.673,79.285C26.673,80.344 27.549,81.316 28.858,81.316C29.984,81.316 31.091,80.575 31.178,79.208L31.178,78.996L30.08,78.996C30.08,79.073 30.071,79.16 30.061,79.237C29.965,79.892 29.503,80.277 28.906,80.277C28.232,80.277 27.819,79.786 27.819,79.179C27.828,78.688 28.136,78.371 28.627,77.88C29.349,77.187 29.551,76.686 29.57,76.032L28.512,76.032Z" style="fill:rgb(35,31,32);fill-rule:nonzero;"/>
                <path d="M39.975,78.486C39.369,78.438 39.012,78.342 38.647,78.092C38.926,77.764 39.523,77.052 39.523,75.705C39.523,73.741 37.954,72.038 35.769,72.038C33.584,72.038 32.044,73.77 32.044,75.753C32.044,77.63 33.507,79.43 35.798,79.43C36.529,79.43 37.27,79.199 37.886,78.804C38.194,79.035 38.608,79.314 39.436,79.381C39.619,79.401 39.792,79.41 39.975,79.42L39.975,78.486ZM35.778,73.039C37.203,73.039 38.396,74.126 38.396,75.705C38.396,76.359 38.175,76.946 37.761,77.37C37.01,76.735 36.799,76.542 36.394,76.292C35.827,75.936 35.249,75.791 34.614,75.791C34.017,75.791 33.584,75.936 33.295,76.032C33.257,75.868 33.228,75.657 33.247,75.339C33.401,73.972 34.46,73.039 35.769,73.039L35.778,73.039ZM35.788,78.429C35.153,78.429 34.007,78.149 33.459,76.956C33.709,76.85 34.017,76.754 34.498,76.754C35.085,76.754 35.673,76.927 36.212,77.322C36.317,77.408 36.866,77.851 37.068,78.072C36.828,78.246 36.346,78.429 35.798,78.429L35.788,78.429Z" style="fill:rgb(35,31,32);fill-rule:nonzero;"/>
                <path d="M45.509,74.059L44.508,74.059L44.508,76.985C44.508,77.88 44.056,78.506 43.074,78.515C42.044,78.515 41.679,77.841 41.679,76.898L41.679,74.059L40.678,74.059L40.678,77.129C40.678,78.217 41.111,79.439 42.795,79.449C43.729,79.458 44.316,79.025 44.566,78.486L44.566,79.295L45.509,79.295L45.509,74.059Z" style="fill:rgb(35,31,32);fill-rule:nonzero;"/>
                <path d="M51.948,76.994C52.035,76.119 51.775,75.3 51.159,74.675C50.659,74.184 49.975,73.905 49.225,73.905C47.636,73.905 46.462,75.185 46.462,76.686C46.462,78.072 47.521,79.449 49.234,79.449C49.764,79.449 50.283,79.304 50.726,79.006C51.169,78.717 51.535,78.284 51.785,77.707L50.745,77.707C50.457,78.255 49.937,78.592 49.234,78.592C48.445,78.592 47.521,78.053 47.473,76.994L51.948,76.994ZM47.492,76.215C47.54,75.503 48.204,74.761 49.225,74.761C50.216,74.742 50.909,75.522 50.957,76.215L47.492,76.215ZM48.031,72.836L48.329,73.452L50.668,72.278L50.322,71.547L48.031,72.836Z" style="fill:rgb(35,31,32);fill-rule:nonzero;"/>
                <path d="M54.172,78.034L53.113,78.034L52.507,80.026L53.373,80.026L54.172,78.034Z" style="fill:rgb(35,31,32);fill-rule:nonzero;"/>
                <path d="M62.863,74.059L61.901,74.059L61.901,74.954C61.622,74.463 61.006,73.905 59.947,73.905C58.388,73.905 57.261,75.098 57.261,76.735C57.261,78.207 58.32,79.449 59.889,79.449C61.006,79.449 61.631,78.842 61.862,78.409L61.862,81.201L62.863,81.201L62.863,74.059ZM58.262,76.696C58.272,75.791 58.888,74.838 60.091,74.838C60.601,74.838 61.063,75.041 61.4,75.377C61.727,75.714 61.93,76.176 61.91,76.686C61.91,77.197 61.708,77.659 61.381,77.986C61.054,78.313 60.601,78.515 60.091,78.515C58.994,78.515 58.262,77.649 58.262,76.706L58.262,76.696Z" style="fill:rgb(35,31,32);fill-rule:nonzero;"/>
                <path d="M68.994,74.059L67.993,74.059L67.993,76.985C67.993,77.88 67.541,78.506 66.559,78.515C65.529,78.515 65.164,77.841 65.164,76.898L65.164,74.059L64.163,74.059L64.163,77.129C64.163,78.217 64.596,79.439 66.28,79.449C67.214,79.458 67.801,79.025 68.051,78.486L68.051,79.295L68.994,79.295L68.994,74.059Z" style="fill:rgb(35,31,32);fill-rule:nonzero;"/>
                <path d="M75.424,76.994C75.51,76.119 75.251,75.3 74.635,74.675C74.134,74.184 73.451,73.905 72.7,73.905C71.112,73.905 69.938,75.185 69.938,76.686C69.938,78.072 70.996,79.449 72.71,79.449C73.239,79.449 73.759,79.304 74.201,79.006C74.644,78.717 75.01,78.284 75.26,77.707L74.221,77.707C73.932,78.255 73.412,78.592 72.71,78.592C71.92,78.592 70.996,78.053 70.948,76.994L75.424,76.994ZM70.967,76.215C71.016,75.503 71.68,74.761 72.7,74.761C73.691,74.742 74.384,75.522 74.432,76.215L70.967,76.215ZM71.506,72.836L71.805,73.452L74.144,72.278L73.797,71.547L71.506,72.836Z" style="fill:rgb(35,31,32);fill-rule:nonzero;"/>
                <path d="M79.351,79.295L80.352,79.295L80.352,74.838L81.314,74.838L81.314,74.059L80.352,74.059L80.352,73.751C80.352,72.836 80.977,72.836 81.314,72.827L81.314,72.038C80.573,72.047 79.351,72.124 79.351,73.703L79.351,74.059L78.639,74.059L78.639,74.838L79.351,74.838L79.351,79.295Z" style="fill:rgb(35,31,32);fill-rule:nonzero;"/>
                <path d="M86.868,74.059L85.867,74.059L85.867,76.985C85.867,77.88 85.415,78.506 84.433,78.515C83.403,78.515 83.037,77.841 83.037,76.898L83.037,74.059L82.036,74.059L82.036,77.129C82.036,78.217 82.469,79.439 84.154,79.449C85.087,79.458 85.674,79.025 85.925,78.486L85.925,79.295L86.868,79.295L86.868,74.059Z" style="fill:rgb(35,31,32);fill-rule:nonzero;"/>
                <path d="M93.297,76.994C93.384,76.119 93.124,75.3 92.508,74.675C92.008,74.184 91.324,73.905 90.574,73.905C88.985,73.905 87.811,75.185 87.811,76.686C87.811,78.072 88.87,79.449 90.583,79.449C91.113,79.449 91.632,79.304 92.075,79.006C92.518,78.717 92.884,78.284 93.134,77.707L92.094,77.707C91.806,78.255 91.286,78.592 90.583,78.592C89.794,78.592 88.87,78.053 88.822,76.994L93.297,76.994ZM88.841,76.215C88.889,75.503 89.553,74.761 90.574,74.761C91.565,74.742 92.258,75.522 92.306,76.215L88.841,76.215Z" style="fill:rgb(35,31,32);fill-rule:nonzero;"/>
                <path d="M102.239,76.994C102.326,76.119 102.066,75.3 101.45,74.675C100.949,74.184 100.266,73.905 99.515,73.905C97.927,73.905 96.753,75.185 96.753,76.686C96.753,78.072 97.812,79.449 99.525,79.449C100.054,79.449 100.574,79.304 101.017,79.006C101.459,78.717 101.825,78.284 102.075,77.707L101.036,77.707C100.747,78.255 100.227,78.592 99.525,78.592C98.736,78.592 97.812,78.053 97.763,76.994L102.239,76.994ZM97.783,76.215C97.831,75.503 98.495,74.761 99.515,74.761C100.507,74.742 101.2,75.522 101.248,76.215L97.783,76.215Z" style="fill:rgb(35,31,32);fill-rule:nonzero;"/>
                <path d="M106.522,75.426C106.445,74.261 105.502,73.905 104.78,73.905C103.827,73.905 103.019,74.502 103.019,75.493C103.028,76.282 103.606,76.629 104.337,76.85C105.271,77.158 105.666,77.331 105.675,77.851C105.675,78.294 105.3,78.631 104.819,78.631C104.443,78.631 103.933,78.419 103.895,77.784L102.903,77.784C102.951,78.977 103.981,79.449 104.809,79.449C105.848,79.449 106.695,78.756 106.676,77.736C106.647,76.609 105.771,76.378 104.973,76.157C104.414,76.003 104.039,75.811 104.02,75.397C104.01,75.05 104.28,74.723 104.77,74.723C105.281,74.713 105.531,75.021 105.531,75.426L106.522,75.426Z" style="fill:rgb(35,31,32);fill-rule:nonzero;"/>
                <path d="M107.408,76.677C107.408,78.082 108.438,79.439 110.199,79.439C111.96,79.439 112.99,78.082 112.99,76.677C112.99,75.272 111.96,73.905 110.199,73.905C108.438,73.905 107.408,75.272 107.408,76.667L107.408,76.677ZM108.409,76.677C108.409,75.628 109.198,74.848 110.199,74.848C111.2,74.848 111.989,75.628 111.989,76.677C111.989,77.726 111.2,78.506 110.199,78.506C109.198,78.506 108.409,77.726 108.409,76.686L108.409,76.677Z" style="fill:rgb(35,31,32);fill-rule:nonzero;"/>
                <path d="M116.455,77.331C116.465,76.975 116.513,76.59 117.187,75.945C117.716,75.445 118.294,74.915 118.294,74.078C118.294,73.01 117.418,72.038 116.109,72.038C114.983,72.038 113.876,72.788 113.789,74.145C113.789,74.213 113.779,74.271 113.789,74.357L114.886,74.357C114.886,74.28 114.896,74.203 114.906,74.117C114.992,73.472 115.464,73.087 116.061,73.087C116.734,73.087 117.148,73.568 117.148,74.174C117.139,74.675 116.831,74.992 116.34,75.483C115.618,76.176 115.416,76.677 115.396,77.331L116.455,77.331ZM116.446,78.044L115.396,78.044L115.396,79.295L116.446,79.295L116.446,78.044Z" style="fill:rgb(35,31,32);fill-rule:nonzero;"/>
            </g>
        </g>
    </g>
</svg>
